static/img/kroki/073dac1f9f1d47c694e7cfe47536a320.svg

<?xml version="1.0" encoding="us-ascii" standalone="no"?><svg xmlns="http://www.w3.org/2000/svg" xmlns:xlink="http://www.w3.org/1999/xlink" contentStyleType="text/css" height="374px" preserveAspectRatio="none" style="width:335px;height:374px;" version="1.1" viewBox="0 0 335 374" width="335px" zoomAndPan="magnify"><defs/><g><!--class aws_resource--><g id="elem_aws_resource"><rect codeLine="23" fill="#3D176E" height="39.7891" id="aws_resource" rx="2.5" ry="2.5" style="stroke:#000D19;stroke-width:0.5;" width="155" x="7" y="167.79"/><ellipse cx="22" cy="187.6845" fill="#ADD1B2" rx="11" ry="11" style="stroke:#181818;stroke-width:1.0;"/><path d="M24.9688,193.3252 Q24.3906,193.622 23.75,193.7627 Q23.1094,193.9189 22.4063,193.9189 Q19.9063,193.9189 18.5781,192.2783 Q17.2656,190.622 17.2656,187.497 Q17.2656,184.372 18.5781,182.7158 Q19.9063,181.0595 22.4063,181.0595 Q23.1094,181.0595 23.75,181.2158 Q24.4063,181.372 24.9688,181.6689 L24.9688,184.3877 Q24.3438,183.8095 23.75,183.5439 Q23.1563,183.2627 22.5313,183.2627 Q21.1875,183.2627 20.5,184.3408 Q19.8125,185.4033 19.8125,187.497 Q19.8125,189.5908 20.5,190.6689 Q21.1875,191.7314 22.5313,191.7314 Q23.1563,191.7314 23.75,191.4658 Q24.3438,191.1845 24.9688,190.6064 L24.9688,193.3252 Z " fill="#000000"/><text fill="#D9B8FF" font-family="Helvetica" font-size="17" lengthAdjust="spacing" textLength="113" x="41" y="193.5698">aws_resource</text></g><!--class aws_route53_resource_record--><g id="elem_aws_route53_resource_record"><rect codeLine="26" fill="#3D176E" height="39.7891" id="aws_route53_resource_record" rx="2.5" ry="2.5" style="stroke:#000D19;stroke-width:0.5;" width="292" x="26.5" y="328.58"/><ellipse cx="41.5" cy="348.4745" fill="#ADD1B2" rx="11" ry="11" style="stroke:#181818;stroke-width:1.0;"/><path d="M44.4688,354.1152 Q43.8906,354.412 43.25,354.5527 Q42.6094,354.7089 41.9063,354.7089 Q39.4063,354.7089 38.0781,353.0683 Q36.7656,351.412 36.7656,348.287 Q36.7656,345.162 38.0781,343.5058 Q39.4063,341.8495 41.9063,341.8495 Q42.6094,341.8495 43.25,342.0058 Q43.9063,342.162 44.4688,342.4589 L44.4688,345.1777 Q43.8438,344.5995 43.25,344.3339 Q42.6563,344.0527 42.0313,344.0527 Q40.6875,344.0527 40,345.1308 Q39.3125,346.1933 39.3125,348.287 Q39.3125,350.3808 40,351.4589 Q40.6875,352.5214 42.0313,352.5214 Q42.6563,352.5214 43.25,352.2558 Q43.8438,351.9745 44.4688,351.3964 L44.4688,354.1152 Z " fill="#000000"/><text fill="#D9B8FF" font-family="Helvetica" font-size="17" lengthAdjust="spacing" textLength="250" x="60.5" y="354.3598">aws_route53_resource_record</text></g><!--class dns_record--><g id="elem_dns_record"><rect codeLine="29" fill="#3D176E" height="39.7891" id="dns_record" rx="2.5" ry="2.5" style="stroke:#000D19;stroke-width:0.5;" width="132" x="196.5" y="167.79"/><ellipse cx="211.5" cy="187.6845" fill="#ADD1B2" rx="11" ry="11" style="stroke:#181818;stroke-width:1.0;"/><path d="M214.4688,193.3252 Q213.8906,193.622 213.25,193.7627 Q212.6094,193.9189 211.9063,193.9189 Q209.4063,193.9189 208.0781,192.2783 Q206.7656,190.622 206.7656,187.497 Q206.7656,184.372 208.0781,182.7158 Q209.4063,181.0595 211.9063,181.0595 Q212.6094,181.0595 213.25,181.2158 Q213.9063,181.372 214.4688,181.6689 L214.4688,184.3877 Q213.8438,183.8095 213.25,183.5439 Q212.6563,183.2627 212.0313,183.2627 Q210.6875,183.2627 210,184.3408 Q209.3125,185.4033 209.3125,187.497 Q209.3125,189.5908 210,190.6689 Q210.6875,191.7314 212.0313,191.7314 Q212.6563,191.7314 213.25,191.4658 Q213.8438,191.1845 214.4688,190.6064 L214.4688,193.3252 Z " fill="#000000"/><text fill="#D9B8FF" font-family="Helvetica" font-size="17" lengthAdjust="spacing" textLength="90" x="230.5" y="193.5698">dns_record</text></g><!--class resource--><g id="elem_resource"><rect codeLine="32" fill="#3D176E" height="39.7891" id="resource" rx="2.5" ry="2.5" style="stroke:#000D19;stroke-width:0.5;" width="113" x="116" y="7"/><ellipse cx="131" cy="26.8945" fill="#ADD1B2" rx="11" ry="11" style="stroke:#181818;stroke-width:1.0;"/><path d="M133.9688,32.5352 Q133.3906,32.832 132.75,32.9727 Q132.1094,33.1289 131.4063,33.1289 Q128.9063,33.1289 127.5781,31.4883 Q126.2656,29.832 126.2656,26.707 Q126.2656,23.582 127.5781,21.9258 Q128.9063,20.2695 131.4063,20.2695 Q132.1094,20.2695 132.75,20.4258 Q133.4063,20.582 133.9688,20.8789 L133.9688,23.5977 Q133.3438,23.0195 132.75,22.7539 Q132.1563,22.4727 131.5313,22.4727 Q130.1875,22.4727 129.5,23.5508 Q128.8125,24.6133 128.8125,26.707 Q128.8125,28.8008 129.5,29.8789 Q130.1875,30.9414 131.5313,30.9414 Q132.1563,30.9414 132.75,30.6758 Q133.3438,30.3945 133.9688,29.8164 L133.9688,32.5352 Z " fill="#000000"/><text fill="#D9B8FF" font-family="Helvetica" font-size="17" lengthAdjust="spacing" textLength="71" x="150" y="32.7798">resource</text></g><!--reverse link resource to aws_resource--><g id="link_resource_aws_resource"><path codeLine="35" d="M153.1624,62.7926 C136.2424,93.3126 112.09,136.9 95.15,167.46 " fill="none" id="resource-backto-aws_resource" style="stroke:#FFAF37;stroke-width:2.0;"/><polygon fill="none" points="161.89,47.05,147.9149,59.8834,158.41,65.7018,161.89,47.05" style="stroke:#FFAF37;stroke-width:2.0;"/></g><!--reverse link aws_resource to aws_route53_resource_record--><g id="link_aws_resource_aws_route53_resource_record"><path codeLine="36" d="M103.8376,223.5826 C120.7576,254.1026 144.91,297.69 161.85,328.25 " fill="none" id="aws_resource-backto-aws_route53_resource_record" style="stroke:#FFAF37;stroke-width:2.0;"/><polygon fill="none" points="95.11,207.84,98.59,226.4918,109.0851,220.6734,95.11,207.84" style="stroke:#FFAF37;stroke-width:2.0;"/></g><!--reverse link dns_record to aws_route53_resource_record--><g id="link_dns_record_aws_route53_resource_record"><path codeLine="37" d="M242.7676,223.5014 C225.4776,254.0214 200.72,297.69 183.39,328.25 " fill="none" id="dns_record-backto-aws_route53_resource_record" style="stroke:#FFAF37;stroke-width:2.0;"/><polygon fill="none" points="251.64,207.84,237.5471,220.544,247.9881,226.4589,251.64,207.84" style="stroke:#FFAF37;stroke-width:2.0;"/></g><!--reverse link resource to dns_record--><g id="link_resource_dns_record"><path codeLine="38" d="M192.2324,62.7114 C209.5224,93.2314 234.28,136.9 251.61,167.46 " fill="none" id="resource-backto-dns_record" style="stroke:#FFAF37;stroke-width:2.0;"/><polygon fill="none" points="183.36,47.05,187.0119,65.6689,197.4529,59.754,183.36,47.05" style="stroke:#FFAF37;stroke-width:2.0;"/></g><!--SRC=[XPBBReCm44Nt_WfBMIEHHYb1wYP1gjfDL3NTLmQFWmNOQ6oAqiU_5vgMcaV2pfvxFFVEoAdaGA4exOaMKCI0XfXCgf8XA-WMKTUHpZNIXH1Ch8AXUA-LdGNsh03w0FaRM9cm8V6IoYHJO0ozSQGTIx8ZwahnStkBJ9b60cKTAigPCLjhKSQL1ISC3-ED44Dos7InuilW5aQOHWxuY_Y-pvVX49crkZftHnpaEz2bkxIzjZ2AERBueQwcR0adv6ZGF_rYnYV6kLH7kdPgp-TCg01xzKFAkAvRMh3Sk3R60eAsfnAYqLGGRhW89k77Ip19sjLHLfjN1AChJ81-4FBbrdNp5TQhJcyEIRCg5-FAJ5Jx3RlRtQVdUJr7qhDtz6bdujZDmuE-_s_9Dm00]--></g></svg>

<svg xmlns="http://www.w3.org/2000/svg" width="335" height="374" viewBox="0 0 335 374"><rect width="155" height="39.789" x="7" y="167.79" fill="#3D176E" rx="2.5" ry="2.5" style="stroke:#000d19;stroke-width:.5"/><circle cx="22" cy="187.685" r="11" fill="#ADD1B2" style="stroke:#181818;stroke-width:1"/><path d="M24.969 193.325q-.578.297-1.219.438-.64.156-1.344.156-2.5 0-3.828-1.64-1.312-1.657-1.312-4.782t1.312-4.781q1.328-1.656 3.828-1.656.703 0 1.344.156.656.156 1.219.453v2.719q-.625-.578-1.219-.844-.594-.281-1.219-.281-1.343 0-2.031 1.078-.687 1.062-.687 3.156t.687 3.172q.688 1.062 2.031 1.062.625 0 1.219-.265.594-.281 1.219-.86z"/><text x="41" y="193.57" fill="#D9B8FF" font-family="Helvetica" font-size="17" textLength="113">aws_resource</text><rect width="292" height="39.789" x="26.5" y="328.58" fill="#3D176E" rx="2.5" ry="2.5" style="stroke:#000d19;stroke-width:.5"/><circle cx="41.5" cy="348.474" r="11" fill="#ADD1B2" style="stroke:#181818;stroke-width:1"/><path d="M44.469 354.115q-.578.297-1.219.438-.64.156-1.344.156-2.5 0-3.828-1.64-1.312-1.657-1.312-4.782t1.312-4.781q1.328-1.656 3.828-1.656.703 0 1.344.156.656.156 1.219.453v2.719q-.625-.579-1.219-.844-.594-.281-1.219-.281-1.343 0-2.031 1.078-.687 1.062-.687 3.156t.687 3.172q.688 1.062 2.031 1.062.625 0 1.219-.265.594-.281 1.219-.86z"/><text x="60.5" y="354.36" fill="#D9B8FF" font-family="Helvetica" font-size="17" textLength="250">aws_route53_resource_record</text><rect width="132" height="39.789" x="196.5" y="167.79" fill="#3D176E" rx="2.5" ry="2.5" style="stroke:#000d19;stroke-width:.5"/><circle cx="211.5" cy="187.685" r="11" fill="#ADD1B2" style="stroke:#181818;stroke-width:1"/><path d="M214.469 193.325q-.578.297-1.219.438-.64.156-1.344.156-2.5 0-3.828-1.64-1.312-1.657-1.312-4.782t1.312-4.781q1.328-1.656 3.828-1.656.703 0 1.344.156.656.156 1.219.453v2.719q-.625-.578-1.219-.844-.594-.281-1.219-.281-1.344 0-2.031 1.078-.687 1.062-.687 3.156t.687 3.172q.688 1.062 2.031 1.062.625 0 1.219-.265.594-.281 1.219-.86z"/><text x="230.5" y="193.57" fill="#D9B8FF" font-family="Helvetica" font-size="17" textLength="90">dns_record</text><rect width="113" height="39.789" x="116" y="7" fill="#3D176E" rx="2.5" ry="2.5" style="stroke:#000d19;stroke-width:.5"/><circle cx="131" cy="26.895" r="11" fill="#ADD1B2" style="stroke:#181818;stroke-width:1"/><path d="M133.969 32.535q-.578.297-1.219.438-.64.156-1.344.156-2.5 0-3.828-1.64-1.312-1.657-1.312-4.782t1.312-4.781q1.328-1.656 3.828-1.656.703 0 1.344.156.656.156 1.219.453v2.719q-.625-.578-1.219-.844-.594-.281-1.219-.281-1.344 0-2.031 1.078-.687 1.062-.687 3.156t.687 3.172q.688 1.062 2.031 1.062.625 0 1.219-.265.594-.281 1.219-.86z"/><text x="150" y="32.78" fill="#D9B8FF" font-family="Helvetica" font-size="17" textLength="71">resource</text><path fill="none" d="M153.162 62.793C136.242 93.313 112.09 136.9 95.15 167.46m66.74-120.41-13.975 12.833 10.495 5.819zm-58.052 176.533c16.92 30.52 41.072 74.107 58.012 104.667M95.11 207.84l3.48 18.652 10.495-5.819z" style="stroke:#ffaf37;stroke-width:2"/><g fill="none"><path d="M242.768 223.501c-17.29 30.52-42.048 74.189-59.378 104.749" style="stroke:#ffaf37;stroke-width:2"/><path d="m251.64 207.84-14.093 12.704 10.441 5.915z" style="stroke:#ffaf37;stroke-width:2"/></g><g fill="none"><path d="M192.232 62.711c17.29 30.52 42.048 74.189 59.378 104.749" style="stroke:#ffaf37;stroke-width:2"/><path d="m183.36 47.05 3.652 18.619 10.44-5.915z" style="stroke:#ffaf37;stroke-width:2"/></g></svg>
